icons/circle/48/BlankUp.svg

<svg xmlns="http://www.w3.org/2000/svg" viewBox="0 0 48 48">
 <defs>
  <linearGradient id="linearGradient4309" x1="1" x2="47" gradientUnits="userSpaceOnUse" gradientTransform="matrix(0,-1,1,0,0,48)">
   <stop style="stop-color:#afd9ed;stop-opacity:1"/>
   <stop offset="1" style="stop-color:#bfe1f1;stop-opacity:1"/>
  </linearGradient>
 </defs>
 <path d="m 36.31,5 c 5.859,4.062 9.688,10.831 9.688,18.5 0,12.426 -10.07,22.5 -22.5,22.5 -7.669,0 -14.438,-3.828 -18.5,-9.688 1.037,1.822 2.306,3.499 3.781,4.969 4.085,3.712 9.514,5.969 15.469,5.969 12.703,0 23,-10.298 23,-23 0,-5.954 -2.256,-11.384 -5.969,-15.469 C 39.81,7.306 38.132,6.037 36.31,5 Z m 4.969,3.781 c 3.854,4.113 6.219,9.637 6.219,15.719 0,12.703 -10.297,23 -23,23 -6.081,0 -11.606,-2.364 -15.719,-6.219 4.16,4.144 9.883,6.719 16.219,6.719 12.703,0 23,-10.298 23,-23 0,-6.335 -2.575,-12.06 -6.719,-16.219 z" style="opacity:0.05"/>
 <path d="m 41.28 8.781 c 3.712 4.085 5.969 9.514 5.969 15.469 0 12.703 -10.297 23 -23 23 -5.954 0 -11.384 -2.256 -15.469 -5.969 4.113 3.854 9.637 6.219 15.719 6.219 12.703 0 23 -10.298 23 -23 0 -6.081 -2.364 -11.606 -6.219 -15.719 z" style="opacity:0.1"/>
 <path d="M 31.25,2.375 C 39.865,5.529 46,13.792 46,23.505 c 0,12.426 -10.07,22.5 -22.5,22.5 -9.708,0 -17.971,-6.135 -21.12,-14.75 a 23,23 0 0 0 44.875,-7 23,23 0 0 0 -16,-21.875 z" style="opacity:0.2"/>
 <path d="M 1,24 C 1,11.297 11.297,1 24,1 36.703,1 47,11.297 47,24 47,36.703 36.703,47 24,47 11.297,47 1,36.703 1,24 Z" style="fill:url(#linearGradient4309);fill-opacity:1"/>
 <path d="m 40.03,7.531 c 3.712,4.084 5.969,9.514 5.969,15.469 0,12.703 -10.297,23 -23,23 C 17.045,46 11.615,43.744 7.53,40.031 11.708,44.322 17.54,47 23.999,47 c 12.703,0 23,-10.298 23,-23 0,-6.462 -2.677,-12.291 -6.969,-16.469 z" style="opacity:0.1"/>
 <path d="m 17,13 0,9 0,6 0,9 10.5,0 C 31.655,37 35,33.655 35,29.5 35,27.806 34.438,26.253 33.498,25 34.438,23.747 35,22.194 35,20.5 35,16.345 31.655,13 27.5,13 L 17,13 m 3,3 7.5,0 c 2.493,0 4.5,2.01 4.5,4.5 0,0.928 -0.278,1.787 -0.756,2.502 -1.102,-0.634 -2.377,-1 -3.744,-1 l -7.5,0 0,-6 M 31.244,27 c 0.477,0.715 0.756,1.574 0.756,2.502 0,2.493 -2.01,4.5 -4.5,4.5 l -7.5,0 0,-6 7.5,0 c 1.367,0 2.643,-0.368 3.744,-1 z" style="fill:#000;opacity:0.1;fill-opacity:1;stroke:none"/>
 <path d="m 16,12 0,15 10.5,0 C 30.655,27 34,23.655 34,19.5 34,15.345 30.655,12 26.5,12 L 16,12 Z m 3,3 7.5,0 c 2.493,0 4.5,2.007 4.5,4.5 0,2.493 -2.007,4.5 -4.5,4.5 l -7.5,0 0,-9 z" style="fill:#1887c0;opacity:1;fill-opacity:1;stroke:none"/>
 <path d="m 16,21 0,15 10.5,0 C 30.655,36 34,32.655 34,28.5 34,26.806 33.438,25.253 32.498,24 31.892,24.81 31.123,25.488 30.242,25.996 30.72,26.711 31,27.571 31,28.5 31,30.993 28.99,33 26.5,33 l -7.5,0 0,-9 6,0 1.5,0 c 1.567,0 2.916,-0.806 3.715,-2.02 -1.095,-0.624 -2.36,-0.984 -3.715,-0.984 l -10.5,0" style="fill:#181878;opacity:1;fill-opacity:1;stroke:none"/>
</svg>

<svg xmlns="http://www.w3.org/2000/svg" viewBox="0 0 48 48">
  <defs>
    <linearGradient id="a" x1="1" x2="47" gradientUnits="userSpaceOnUse" gradientTransform="rotate(-90 24 24)">
      <stop stop-color="#afd9ed"/>
      <stop offset="1" stop-color="#bfe1f1"/>
    </linearGradient>
  </defs>
  <path d="M36.31 5c5.859 4.062 9.688 10.831 9.688 18.5 0 12.426-10.07 22.5-22.5 22.5-7.669 0-14.438-3.828-18.5-9.688a23.24 23.24 0 0 0 3.781 4.969 22.923 22.923 0 0 0 15.469 5.969c12.703 0 23-10.298 23-23a22.92 22.92 0 0 0-5.969-15.469A23.216 23.216 0 0 0 36.31 5zm4.969 3.781A22.911 22.911 0 0 1 47.498 24.5c0 12.703-10.297 23-23 23a22.909 22.909 0 0 1-15.719-6.219C12.939 45.425 18.662 48 24.998 48c12.703 0 23-10.298 23-23 0-6.335-2.575-12.06-6.719-16.219z" opacity=".05"/>
  <path d="M41.28 8.781a22.923 22.923 0 0 1 5.969 15.469c0 12.703-10.297 23-23 23A22.92 22.92 0 0 1 8.78 41.281 22.911 22.911 0 0 0 24.499 47.5c12.703 0 23-10.298 23-23A22.909 22.909 0 0 0 41.28 8.781z" opacity=".1"/>
  <path d="M31.25 2.375C39.865 5.529 46 13.792 46 23.505c0 12.426-10.07 22.5-22.5 22.5-9.708 0-17.971-6.135-21.12-14.75a23 23 0 0 0 44.875-7 23 23 0 0 0-16-21.875z" opacity=".2"/>
  <path d="M1 24C1 11.297 11.297 1 24 1s23 10.297 23 23-10.297 23-23 23S1 36.703 1 24z" fill="url(#a)"/>
  <path d="M40.03 7.531A22.922 22.922 0 0 1 45.999 23c0 12.703-10.297 23-23 23A22.92 22.92 0 0 1 7.53 40.031C11.708 44.322 17.54 47 23.999 47c12.703 0 23-10.298 23-23 0-6.462-2.677-12.291-6.969-16.469z" opacity=".1"/>
  <path d="M17 13v24h10.5c4.155 0 7.5-3.345 7.5-7.5a7.465 7.465 0 0 0-1.502-4.5A7.465 7.465 0 0 0 35 20.5c0-4.155-3.345-7.5-7.5-7.5H17m3 3h7.5c2.493 0 4.5 2.01 4.5 4.5 0 .928-.278 1.787-.756 2.502a7.477 7.477 0 0 0-3.744-1H20v-6M31.244 27A4.49 4.49 0 0 1 32 29.502c0 2.493-2.01 4.5-4.5 4.5H20v-6h7.5a7.495 7.495 0 0 0 3.744-1z" opacity=".1"/>
  <path d="M16 12v15h10.5c4.155 0 7.5-3.345 7.5-7.5 0-4.155-3.345-7.5-7.5-7.5H16zm3 3h7.5a4.49 4.49 0 0 1 4.5 4.5 4.49 4.49 0 0 1-4.5 4.5H19v-9z" fill="#1887c0"/>
  <path d="M16 21v15h10.5c4.155 0 7.5-3.345 7.5-7.5a7.465 7.465 0 0 0-1.502-4.5 7.482 7.482 0 0 1-2.256 1.996c.478.715.758 1.575.758 2.504 0 2.493-2.01 4.5-4.5 4.5H19v-9h7.5c1.567 0 2.916-.806 3.715-2.02a7.474 7.474 0 0 0-3.715-.984H16" fill="#181878"/>
</svg>
